X:3043
T:Cirkus-polka
T:(G major)
C:anon.
R:Polka
Z:Transcribed by Frank Nordberg - http://www.musicaviva.com
F:http://abc.musicaviva.com/tunes/anon/cirkus-polka-g.abc
M:2/4
L:1/8
K:G
g2|"D7"ff ff|"D7"ff fe|"G"dd dd|"G"B4|
"D7"dd dd|"D7"c4|"G"dd dd|"G"B z g2|
"D7"ff ff|"D7"ff fe|"G"dd dd|"G"B4|
"C"ee "Am"e2|"D"ff f2|"G/D"gg "D7"(fa)|"G"g z |:(g>f)|
"C"e2 c2-|c2 (f>e)|"G"d2B2-|"G"B2 (e>d)|
"D"c2 A2|"D"d2 c2|"G"B2 d2|"G"e2 g2|
"D7"ff ff|"D7"ff fe|"G"dd dd|"G"B4|
"C"ee "Am"e2|"D"ff f2|"G/D"gg "D7"(fa)|"G"g z :|
W:
W:
W:  From Musica Viva - http://www.musicaviva.com
W:  the Internet center for free sheet music downloads.
